www/assets/icons/add_photo_alternate.svg

<svg xmlns="http://www.w3.org/2000/svg" width="24" height="24" viewBox="0 0 24 24" fill='currentColor'><path d="M18.5 7.5v2.99s-1.99.01-2 0V7.5h-3s.01-1.99 0-2h3v-3h2v3h3v2zm-3 4v-3h-3v-3h-8c-1.1 0-2 .9-2 2v12c0 1.1.9 2 2 2h12c1.1 0 2-.9 2-2v-8zm-11 8 3-4 2 3 3-4 4 5z"/></svg>

<svg width="24" height="24" viewBox="0 0 24 24" xmlns="http://www.w3.org/2000/svg" fill='currentColor'><path d="M18.5 7.5V10.49C18.5 10.49 16.51 10.5 16.5 10.49V7.5H13.5C13.5 7.5 13.51 5.51 13.5 5.5H16.5V2.5H18.5V5.5H21.5V7.5H18.5ZM15.5 11.5V8.5H12.5V5.5H4.5C3.4 5.5 2.5 6.4 2.5 7.5V19.5C2.5 20.6 3.4 21.5 4.5 21.5H16.5C17.6 21.5 18.5 20.6 18.5 19.5V11.5H15.5ZM4.5 19.5L7.5 15.5L9.5 18.5L12.5 14.5L16.5 19.5H4.5Z"/></svg>
